!!!COM: Bach, Johann Sebastian
!!!CDT: 1685///-1750///
!!!OTL: Courante from Cello Suite No. 5 in C Minor, BWV 1011
!!!OPR: Cello Suite No. 5 in C Minor, BWV 1011
!!!OMD: Courante
!!!OMV: 3
!!!ODT: 1724///
!!!SCT: BWV 1011
!!!SCA: Thematisch-systematisches Verzeichnis der musikalischen Werke Johann Sebastian Bach: Bach-Werke-Verzeichnis (Schmieder)
!!!CNT: German
!!!ENC: Craig Stuart Sapp
!!!YEC: Copyright 2001 by Craig Stuart Sapp
!!!YEN: United States of America
**kern
*Icello
*ICstr
*IGsolo
*clefF4
*k[b-e-a-]
*c:
*M3/2
*MM144
*^
*>[A,A,B,B]	*>[A,A,B,B]
*>A	*>A
8ryy	8C
=1	=1
4CC	4.C
4ryy	.
.	8D
2ryy	8E-
.	8F
.	8G
.	8A-
2ryy	8G
.	8F
.	8G
.	8E-
=2	=2
8DD 8BBn	4.F
8ryy	.
4ryy	.
.	8E-
2ryy	8E-
.	8D
.	8C
.	8BBn
2ryy	4.C
.	8D
=3	=3
4.EE-	4.GG
8ryy	16C
.	16BBn
2ryy	4C
.	4D
2ryy	8F
.	8E-
.	8D
.	8C
=4	=4
8FF 8C	4.A-
8ryy	.
4ryy	.
.	8F
4ryy	8c
.	8Bn
4E-	4c
4GG	4.D
4ryy	.
.	8G
=5	=5
4CC 4GG	4.E-
4ryy	.
.	8D
2ryy	8C
.	8D
.	8E-
.	8F
2ryy	8G
.	8A-
.	8c
.	8B-
=6	=6
4GG 4EE-	4.B-
4ryy	.
.	8A-
2ryy	8G
.	8F
.	8E-
.	8D
2ryy	8D
.	8E-
.	8.An
.	16F
=7	=7
1.ryy	8E-
.	8D
.	8C
.	8BB-
.	4.B-
.	8c
.	8B-
.	8An
.	8B-
.	8G
=8	=8
4E-	4.c
4ryy	.
.	8B-
2ryy	8B-
.	8An
.	8G
.	8F#
2ryy	4.G
.	8Any
=9	=9
8D	8G
8ryy	8F#
4ryy	8En
.	8D
4ryy	4d
4Fn	8c
.	8Bn
4E-	4c
4D	4d
=10	=10
4C 4G	4.e-
4ryy	.
.	8d
2ryy	8c
.	8B-
.	8An
.	8B-
2ryy	4.F#
.	8G
=11	=11
2ryy	8AAn
.	8F#
.	8c
.	8d
*^	*
8GG	4D	8c
8ryy	.	8B-
*v	*v	*
8.C	8.ryy
16ryy	16An
4D	4.Any
4ryy	.
.	8G
=12	=12
2ryy	[4G
.	16G]
.	16Fn
.	16E-
.	16D
2ryy	8.E-
.	16C
.	2GG 2G
4ryy	.
8ryy	8r
*>B	*>B
=:|!|:	=:|!|:
8ryy	8d
=13	=13
8GG 8Bn	4.d
8ryy	.
4ryy	.
.	8e-
2ryy	8d
.	8c
.	8Bn
.	16c
.	16d
2ryy	4.G
.	8A-
=14	=14
4AAn	4.F
4ryy	.
.	8E-
2ryy	8D
.	8E-
.	8F
.	8A-
4BBn	4G
4GG	4F
=15	=15
8C	8F
8ryy	8E-
4ryy	8D
.	8C
4r	4A-
4BB-	4G
4AA- 4E-	4.c
4ryy	.
.	8d-
=16	=16
2ryy	4.En
.	8F
2ryy	8G
.	8A-
.	8B-
.	8c
4ryy	4d-
4En	4c
=17	=17
8F	8B-
8ryy	8A-
4ryy	8G
.	8F
2ryy	8E-
.	8D-
.	8E-
.	8C
2ryy	8D
.	8F
.	8G
.	8A-
=18	=18
2ryy	8A-
.	8G
.	8F
.	8E-
8C 8A-	4.e-
8ryy	.
4ryy	.
.	8f
4E-	4.B-
4ryy	.
.	8A-
=19	=19
1.ryy	4.A-
.	8G
.	8A-
.	8B-
.	8c
.	8dn
.	4.d
.	16c
.	16d
=20	=20
4G	4.e-
4ryy	.
.	8B-
4ryy	4c
4E-	4G
4F	8G
.	8A-
8D	8ryy
8ryy	8B-
=21	=21
8E-	8A-
8ryy	8G
4ryy	8F
.	8E-
2ryy	8G
.	8An
.	8G
.	8Any
2ryy	4.Any
.	16G
.	16Any
=22	=22
4D	4.B-
4ryy	.
.	8An
4ryy	8c
.	8Bn
4E-	4c
4F	8B-
.	8A-
4D	8G
.	8F
=23	=23
4BBn	4.F
4GG	.
.	8G
4C	4E-
8FF	8r
8ryy	8D
4GG	4.D
4ryy	.
.	8C
=24	=24
2ryy	4.C
.	16GG
.	16FF
4ryy	16EE-
.	16FF
.	8GG
4CC 4GG	2E- 2c
4ryy	.
8ryy	8r
=:|!	=:|!
*-	*-
